X: 20451
T: Port Athol
%R: air, reel
B: James Oswald "The Caledonian Pocket Companion" v.2 p.45 #1
Z: 2019 John Chambers <jc:trillian.mit.edu>
M: C
L: 1/8
K: Gm
"_Slow"TB>A |\
G2G2 ~B3c | d2g>a g3f | g2 (g/a/)b fdTcB | {Bc}d2 f>g f2 Td>c |\
TB2 TAG B3B | F>GFD F2 Td>c | B>c (d/c/B/G/) FG Bc |
d2d2 (e/d/c) (d/c/B) |\
c2c2 Tc2(Bc) | Td2c2 c2(B>c) | d2g2 (gf)(df) | g3a g2 (g/a/b) |\
{g}f2ed d2(cd) | B>c (d/c/B/G/) F2(Td>c) |
TB2G2 (GF)(DF) | {F2}G4 G2 :: (B>c) |\
d2 c>d B2 g>a | {ga}b3g fd(TcB) | {Bc}d2F2 FGBD | {E}F3G F2Tf>e |
{e}d2TcB {B}f3d | {d}g2f2 b3a | (gf)(dc) B2 (B/c/)d | {d}c3d c2 (B/c/d/e/) |\
f2 (=e/f/g) f2 (=e/f/g) | (fd)(cd) B2 c/d/f |
g2(ba) (gf)(df) | {f}g3a g2 (g/a/b) |\
{g}f2d2 Td2c>d | B>c (d/c/B/G/) F2 Td>c | {c}B2G2 (GF)(DF) | {F}G3A G2 :|
